public/marquee_icons/4.svg

<svg width="72" height="51" viewBox="0 0 72 51" fill="none" xmlns="http://www.w3.org/2000/svg">
<path d="M0.0307475 34.8546L4.87874 34.8889C7.19094 34.8934 9.5066 34.6586 11.4402 36.1815C13.5045 37.8072 13.7525 41.0998 12.1434 43.1179C11.0104 44.5388 9.4216 44.926 7.70899 45.1112C6.69646 45.1384 5.58391 45.1163 4.56335 45.1173C4.54786 46.8028 4.63598 49.0679 4.53237 50.6981L0.0299348 50.6961C-0.0271364 48.3911 0.0150536 45.9233 0.0144422 43.6083C0.00207674 40.6904 0.00751143 37.7724 0.0307475 34.8546ZM4.56098 41.8642C5.79765 41.8831 7.13672 42.0672 8.14172 41.3128C8.79348 40.5269 8.84776 39.2568 8.04483 38.5851C7.26934 37.9363 5.55816 38.1129 4.56838 38.1062C4.55601 39.3588 4.5535 40.6115 4.56098 41.8642Z" fill="white" fill-opacity="0.69"/>
<path d="M44.4652 34.8755C45.8309 34.8423 47.2617 34.8737 48.6416 34.8866C50.2607 34.9069 51.6793 34.8101 53.3004 35.0477C57.2328 35.6242 58.9144 40.0411 56.5507 43.1513C55.4874 44.5506 53.7162 44.9578 52.0095 45.1182L49.001 45.1146C48.8835 46.9315 49.0289 48.8643 48.948 50.702L44.4571 50.6883C44.438 50.0363 44.438 49.3629 44.4462 48.7095C44.5012 44.1087 44.3572 39.4718 44.4652 34.8755ZM52.5462 41.3274C53.2059 40.5647 53.2983 39.2991 52.4885 38.6025C51.7065 37.9301 50.0032 38.1027 48.9949 38.1105C48.9535 39.2406 48.9202 40.7389 48.9956 41.8595C50.2104 41.881 51.559 42.0648 52.5462 41.3274Z" fill="white" fill-opacity="0.69"/>
<path d="M29.801 34.8638L41.608 34.8589C41.6412 35.9713 41.6154 37.1921 41.6134 38.3123L34.2104 38.3134L34.1996 40.8371L41.3844 40.8325L41.3837 44.2893L34.3259 44.2968L34.2621 44.3421C34.2043 44.5653 34.2458 46.7439 34.2084 47.219H42.1671C42.07 48.2568 41.8254 49.6611 41.6446 50.7014C37.7387 50.6421 33.7199 50.6892 29.8051 50.6891C29.7005 48.5276 29.7732 45.5989 29.7793 43.3986C29.7868 40.6603 29.7011 37.5578 29.801 34.8638Z" fill="white" fill-opacity="0.69"/>
<path d="M15.5918 34.8655C19.4142 34.7985 23.4221 34.8579 27.2581 34.8561C27.3023 35.9339 27.269 37.2197 27.2683 38.3127L20.0828 38.315C20.0753 39.337 20.0746 40.359 20.0801 41.381C22.2501 41.3248 24.6356 41.3741 26.8226 41.3735C26.8607 42.038 26.8362 42.9453 26.8369 43.6289L26.841 44.8353L20.0841 44.8235L20.074 50.6975L15.5653 50.6832L15.5585 41.0008C15.5585 39.0838 15.4974 36.7566 15.5918 34.8655Z" fill="white" fill-opacity="0.69"/>
<path d="M60.0098 34.8613L64.5728 34.8583C64.6326 35.4171 64.6061 36.3892 64.6061 36.9757L64.6075 40.7083L64.6061 44.8751C64.6054 45.5619 64.6353 46.5742 64.5782 47.2191L72.0002 47.216C71.8195 48.173 71.6788 49.346 71.5355 50.3244C71.5117 50.479 71.5131 50.549 71.4077 50.6616C70.9519 50.7374 68.5922 50.6918 67.9848 50.6916L60.0078 50.689C59.9426 48.5005 59.9908 46.0842 59.9908 43.8819C59.9772 40.875 59.9833 37.8681 60.0098 34.8613Z" fill="white" fill-opacity="0.69"/>
<path d="M35.8037 14.6148C35.9276 14.6044 36.2589 14.5827 36.357 14.6067C36.9832 14.7602 38.8445 16.7585 39.1725 17.2379C38.5689 19.8049 36.4677 21.3399 34.8249 23.3854C34.6994 23.5278 34.2967 24.0039 34.1589 24.0242C33.6431 24.1001 32.3207 23.6268 32.1157 23.1521C32.1137 22.3701 33.3665 16.621 33.722 15.6188C33.8704 15.2005 35.278 14.7971 35.8037 14.6148Z" fill="white" fill-opacity="0.69"/>
<path d="M40.2445 18.5342C40.9384 18.5501 41.6994 19.4612 42.2111 19.9279C42.6686 20.345 43.6344 21.0224 43.9024 21.5246C43.8881 21.9306 42.7012 23.1351 42.3742 23.5491C41.8107 24.263 41.2167 25.0643 40.6093 25.7379C39.7126 27.0649 38.6759 26.7548 37.5967 25.8202C37.5991 25.7459 37.6038 25.6717 37.6106 25.5977C37.752 24.1479 38.6154 21.0715 39.168 19.6228C39.2904 19.302 39.9522 18.7725 40.2445 18.5342Z" fill="white" fill-opacity="0.69"/>
<path d="M41.3601 7.63977C42.1481 7.90076 42.6183 9.06496 42.7864 9.80795C42.6177 10.55 41.813 12.1188 41.035 12.309C40.2396 12.5035 37.1788 13.7387 36.5462 13.4532C36.1954 13.1827 34.9647 12.0381 34.876 11.5862C35.2647 10.857 38.703 9.47719 39.4717 8.81592C39.7367 8.58802 40.9827 7.86032 41.3601 7.63977Z" fill="white" fill-opacity="0.69"/>
<path d="M45.3411 14.0144C45.3795 14.0144 45.5329 14.0099 45.547 14.0214C46.0669 14.4446 47.2699 16.6023 47.4437 17.1721C47.0616 17.8968 46.3969 18.6796 45.878 19.3346C45.624 19.6553 44.8854 20.6346 44.4927 20.6822C44.2939 20.7063 43.9964 20.4454 43.8472 20.3205C43.278 19.8947 41.5959 18.476 41.2999 18.0004C40.8364 17.2557 44.7375 14.311 45.3411 14.0144Z" fill="white" fill-opacity="0.69"/>
<path d="M31.843 15.8762C32.1757 15.8267 32.394 15.755 32.6592 15.9804C32.7053 16.3037 31.5743 22.3563 31.3897 22.8206C31.0371 23.2176 30.2142 22.9463 29.8345 22.7173C29.7759 22.6595 29.5741 22.4494 29.5553 22.3996C29.2678 21.6394 28.5016 17.4303 28.6203 16.8958C28.8757 16.5817 31.3713 15.9253 31.843 15.8762Z" fill="white" fill-opacity="0.69"/>
<path d="M36.6304 4.3927C36.9275 4.41869 36.975 4.4399 37.0833 4.70029C37.067 5.24196 36.0713 6.83651 35.7859 7.46935C35.325 8.49112 34.9684 9.72365 34.3263 10.6205C34.0199 11.0483 33.2439 10.0749 33.0575 9.86485C32.5894 9.3476 31.9748 8.72979 31.6748 8.11106C31.8504 7.50506 32.87 6.05584 33.2213 5.45523C33.7272 4.59041 35.569 4.53383 36.6304 4.3927Z" fill="white" fill-opacity="0.69"/>
<path d="M24.5747 22.3548C25.2187 22.2894 28.5191 22.7947 28.8092 23.5494C29.0365 24.141 29.1327 25.6968 29.0033 26.3588C28.9781 26.4875 28.8337 26.529 28.7322 26.5693C28.0041 26.6165 24.6801 26.7745 24.2191 26.4943C24.03 26.1447 24.2761 22.7648 24.5747 22.3548Z" fill="white" fill-opacity="0.69"/>
<path d="M38.8983 3.91187C39.3131 3.99037 39.6813 4.20626 39.8281 4.52495C40.0126 4.92556 41.1796 6.56205 40.9861 6.89032C40.5955 7.55276 37.9301 8.92695 37.248 9.30846C36.8533 9.5361 36.1232 10.0641 35.6822 9.90638C35.5489 9.13517 37.5369 5.52243 37.9966 4.61022C38.2169 4.17298 38.4444 4.01728 38.8983 3.91187Z" fill="white" fill-opacity="0.69"/>
<path d="M27.2634 16.9818C27.3181 16.9664 27.4965 16.9732 27.5647 16.974C28.1027 17.2506 28.5836 21.5491 28.4828 22.1971C28.0893 22.3545 26.8343 21.9943 26.3948 21.8687C26.0839 21.75 24.9657 21.5319 24.8431 21.325C24.2112 20.1948 24.6959 18.9283 25.3521 17.9408C25.8987 17.1182 26.3671 17.1662 27.2634 16.9818Z" fill="white" fill-opacity="0.69"/>
<path d="M44.5934 22.1185C45.1782 22.3124 46.6358 23.7906 46.928 24.3949C45.488 26.0175 45.7019 26.5988 43.3582 26.5539C42.8773 26.5813 41.534 26.7331 41.2118 26.4269C41.1538 25.8874 44.0461 22.6642 44.5934 22.1185Z" fill="white" fill-opacity="0.69"/>
<path d="M47.7755 18.125C47.8309 18.1269 48.0626 18.1405 48.093 18.1599C48.6843 18.5362 49.6073 20.4034 49.9402 21.0048C49.6021 21.4676 47.8912 23.4023 47.4484 23.6118C46.9519 23.2564 45.5433 21.834 45.1885 21.3416C45.4751 20.8362 47.3445 18.5135 47.7755 18.125Z" fill="white" fill-opacity="0.69"/>
<path d="M50.2003 21.9445C50.3133 21.9347 50.4161 21.9368 50.5185 21.9914C50.7447 22.1119 53.1123 25.8977 53.2178 26.264C53.2383 26.335 53.2103 26.354 53.1756 26.4169C52.7746 26.6659 51.9546 26.5987 51.4604 26.5899C50.9898 26.6032 50.5867 26.6367 50.1317 26.5364C49.3694 26.3685 48.4905 24.9767 48.1274 24.2783C48.5241 23.5661 49.5624 22.4301 50.2003 21.9445Z" fill="white" fill-opacity="0.69"/>
<path d="M33.4541 11.922C33.6891 11.944 33.6137 11.9075 33.777 12.0491C33.8445 12.2222 33.8353 12.3906 33.7785 12.5657C33.2073 14.3272 33.4874 14.7989 31.4295 15.1878C30.6309 15.3387 29.4812 15.941 28.5286 15.9343C28.5149 15.911 28.5019 15.8873 28.4896 15.8633C28.309 15.5088 27.9214 14.286 28.0562 13.8837C28.4357 13.5328 29.9677 13.1478 30.5543 12.961C31.5323 12.6476 32.4995 12.3011 33.4541 11.922Z" fill="white" fill-opacity="0.69"/>
<path d="M22.8252 22.35C23.0227 22.3334 23.6504 22.3162 23.6292 22.587C23.5846 23.1558 23.4466 26.1846 23.2452 26.4769C22.7557 26.7111 21.7217 26.6167 21.141 26.6012C20.8155 26.5784 20.3822 26.6228 20.2197 26.3195C20.2288 26.2663 20.2414 26.2138 20.2576 26.1623C20.4163 25.651 22.3104 22.6245 22.8252 22.35Z" fill="white" fill-opacity="0.69"/>
<path d="M43.9308 12.1237C44.6138 12.0704 45.3429 12.8973 44.5679 13.5785C43.398 14.6067 42.1959 15.5599 41.0948 16.6633C40.872 16.8608 40.7675 16.9385 40.4922 16.9541L40.3765 16.8417C40.2208 16.1248 41.6599 13.8217 42.0057 13.0544C42.2541 12.5031 43.3522 12.2628 43.9308 12.1237Z" fill="white" fill-opacity="0.69"/>
<path d="M36.804 0C37.3298 0.130199 38.1607 1.80188 38.2539 2.34095C38.4756 3.62308 36.8338 3.60982 35.9482 3.73171C35.6093 3.80241 34.6761 4.09484 34.4985 3.70933C34.5647 3.0413 36.2345 0.527339 36.804 0Z" fill="white" fill-opacity="0.69"/>
<path d="M31.0589 9.07092C31.1015 9.07624 31.1243 9.08156 31.1647 9.09331L31.1872 9.1C31.6655 9.25327 33.1655 10.66 32.9174 11.3056C32.5475 11.6647 31.241 12.0211 30.6978 12.1971C30.2974 12.3218 29.5142 12.6433 29.1571 12.375C28.9695 11.9416 30.6582 9.34241 31.0589 9.07092Z" fill="white" fill-opacity="0.69"/>
<path d="M40.2228 13.2348C40.485 13.1993 40.5638 13.2031 40.7664 13.3233C41.1069 13.8617 39.9768 15.488 39.722 16.0123C39.5481 16.3697 39.0193 15.944 38.8187 15.7926C38.5812 15.5365 37.447 14.5756 37.7055 14.2622C38.0321 13.8664 39.713 13.4089 40.2228 13.2348Z" fill="white" fill-opacity="0.69"/>
<path d="M37.322 21.5415C37.9676 21.8932 37.0359 24.3473 36.9911 25.0212C36.96 25.4874 36.0552 25.1624 35.7591 25.035C35.4831 24.8601 35.1795 24.7188 35.1304 24.3693C35.2345 23.9082 36.9119 21.8621 37.322 21.5415Z" fill="white" fill-opacity="0.69"/>
<path d="M29.837 23.5906C30.9848 23.5552 31.3147 24.1448 31.173 25.2154C31.1168 25.6399 31.1109 26.0243 30.9679 26.4421C30.6837 26.4941 30.2067 26.5633 29.9418 26.4512C29.615 26.1089 29.5475 24.0122 29.837 23.5906Z" fill="white" fill-opacity="0.69"/>
<path d="M34.373 25.2843C34.41 25.2856 34.5593 25.2987 34.5846 25.3129C34.9236 25.5041 36.582 25.9212 36.4238 26.4381C36.2519 26.5885 36.0198 26.5788 35.7898 26.5963C35.2114 26.6116 34.0935 26.7244 33.6635 26.4161C33.4351 25.9339 34.0326 25.5748 34.373 25.2843Z" fill="white" fill-opacity="0.69"/>
<path d="M32.0736 24.2913C32.4981 24.3839 33.1836 24.4662 33.3482 24.9032C33.379 25.3721 33.0014 25.7253 32.7028 26.1048C32.4749 26.3683 32.2735 26.5618 31.9207 26.4562C31.5527 26.0724 31.8786 24.7314 32.0736 24.2913Z" fill="white" fill-opacity="0.69"/>
<path d="M47.3328 25.08C47.6712 25.1434 48.3749 25.8436 48.5057 26.1427C48.506 26.384 48.5376 26.3002 48.3834 26.4799C48.1479 26.6104 47.7714 26.5684 47.4917 26.5615C47.0688 26.5782 46.4939 26.7057 46.4023 26.1912C46.5479 25.7491 46.9879 25.4074 47.3328 25.08Z" fill="white" fill-opacity="0.69"/>
<path d="M34.4751 12.9031C34.9069 12.9862 35.4377 13.2975 35.468 13.7801C35.3587 14.0291 35.3988 13.9567 35.1747 14.1243C33.9555 14.4343 33.9911 13.8147 34.4751 12.9031Z" fill="white" fill-opacity="0.69"/>
<path d="M27.2008 15.3003C27.8584 15.4977 27.4173 16.0316 27.171 16.3471C27.0052 16.3263 26.9819 16.316 26.8528 16.2079C26.6713 15.7899 26.8779 15.5613 27.2008 15.3003Z" fill="white" fill-opacity="0.69"/>
<path d="M43.2695 10.7653C43.5122 10.9083 43.5618 10.8873 43.687 11.1003C43.6183 11.3252 43.5759 11.3061 43.3739 11.4823C43.1854 11.4368 43.0894 11.3443 42.9946 11.1884C43.0551 10.9175 43.0518 10.9824 43.2695 10.7653Z" fill="white" fill-opacity="0.69"/>
</svg>

<svg xmlns="http://www.w3.org/2000/svg" width="72" height="51" fill="none"><path fill="#fff" fill-opacity=".69" d="m.03 34.855 4.849.034c2.312.004 4.628-.23 6.561 1.292 2.065 1.626 2.313 4.919.703 6.937-1.133 1.42-2.721 1.808-4.434 1.993-1.013.027-2.125.005-3.146.006-.015 1.686.073 3.95-.03 5.581L.03 50.696c-.057-2.305-.015-4.773-.016-7.088a718 718 0 0 1 .017-8.753m4.531 7.01c1.237.018 2.576.202 3.58-.552.652-.786.707-2.056-.096-2.728-.776-.649-2.487-.472-3.477-.479a237 237 0 0 0-.007 3.758M44.465 34.876c1.366-.034 2.797-.002 4.177.01 1.619.02 3.037-.076 4.658.162 3.933.576 5.614 4.993 3.25 8.103-1.063 1.4-2.834 1.807-4.54 1.967L49 45.115c-.117 1.816.028 3.75-.053 5.587l-4.49-.014c-.02-.652-.02-1.325-.012-1.979.055-4.6-.089-9.237.02-13.833m8.081 6.451c.66-.762.752-2.028-.057-2.724-.782-.673-2.486-.5-3.494-.492-.041 1.13-.075 2.628 0 3.749 1.215.021 2.564.205 3.551-.533M29.801 34.864l11.807-.005c.033 1.112.007 2.333.005 3.453l-7.403.001-.01 2.524 7.184-.005v3.457l-7.058.008-.064.045c-.058.223-.016 2.402-.054 2.877h7.96c-.098 1.038-.343 2.442-.523 3.482-3.906-.059-7.925-.012-11.84-.012-.104-2.161-.032-5.09-.026-7.29.008-2.739-.078-5.841.022-8.535M15.592 34.866c3.822-.068 7.83-.008 11.666-.01.044 1.078.011 2.364.01 3.457l-7.185.002a241 241 0 0 0-.003 3.066c2.17-.056 4.556-.007 6.743-.008.038.665.013 1.572.014 2.256l.004 1.206-6.757-.011-.01 5.874-4.509-.015-.006-9.682c0-1.917-.062-4.244.033-6.135M60.01 34.861l4.563-.003c.06.56.033 1.531.033 2.118l.002 3.732-.002 4.167c0 .687.03 1.7-.028 2.344L72 47.216c-.18.957-.321 2.13-.465 3.108-.023.155-.022.225-.127.338-.456.075-2.816.03-3.423.03l-7.977-.003c-.065-2.188-.017-4.605-.017-6.807q-.021-4.51.019-9.02M35.804 14.615c.124-.01.455-.032.553-.008.626.153 2.487 2.152 2.816 2.63-.604 2.568-2.705 4.103-4.348 6.148-.126.143-.528.619-.666.64-.516.075-1.838-.398-2.043-.873-.002-.782 1.25-6.531 1.606-7.533.148-.418 1.556-.822 2.082-1.004M40.245 18.534c.693.016 1.454.927 1.966 1.394.458.417 1.423 1.094 1.691 1.597-.014.406-1.2 1.61-1.528 2.024-.563.714-1.157 1.515-1.765 2.189-.896 1.327-1.933 1.017-3.012.082q.003-.111.014-.222c.141-1.45 1.004-4.526 1.557-5.975.122-.321.784-.85 1.077-1.089M41.36 7.64c.788.26 1.258 1.425 1.426 2.168-.168.742-.973 2.31-1.751 2.501-.795.195-3.856 1.43-4.489 1.144-.35-.27-1.581-1.415-1.67-1.867.389-.729 3.827-2.109 4.596-2.77.265-.228 1.51-.956 1.888-1.176M45.341 14.014c.038 0 .192-.004.206.007.52.424 1.723 2.581 1.897 3.151-.382.725-1.047 1.508-1.566 2.163-.254.32-.993 1.3-1.385 1.347-.2.024-.497-.237-.646-.361-.569-.426-2.251-1.845-2.547-2.32-.464-.745 3.438-3.69 4.041-3.987M31.843 15.876c.333-.05.551-.121.816.104.046.324-1.085 6.376-1.27 6.84-.352.398-1.175.126-1.555-.103-.058-.057-.26-.268-.279-.317-.287-.76-1.053-4.97-.935-5.504.256-.314 2.751-.97 3.223-1.02M36.63 4.393c.297.026.345.047.453.307-.016.542-1.012 2.137-1.297 2.77-.461 1.021-.818 2.254-1.46 3.15-.306.428-1.082-.545-1.269-.755-.468-.517-1.082-1.135-1.382-1.754.175-.606 1.195-2.055 1.546-2.656.506-.865 2.348-.921 3.41-1.062M24.575 22.355c.644-.066 3.944.44 4.234 1.194.227.592.324 2.148.194 2.81-.025.128-.17.17-.27.21-.729.047-4.053.206-4.514-.075-.189-.35.057-3.73.356-4.14M38.898 3.912c.415.078.783.294.93.613.185.4 1.352 2.037 1.158 2.365-.39.663-3.056 2.037-3.738 2.418-.395.228-1.125.756-1.566.598-.133-.77 1.855-4.384 2.315-5.296.22-.437.447-.593.901-.698M27.263 16.982c.055-.016.233-.009.302-.008.538.277 1.019 4.575.918 5.223-.394.158-1.649-.203-2.088-.328-.311-.119-1.43-.337-1.552-.544-.632-1.13-.147-2.397.51-3.384.546-.823 1.014-.775 1.91-.96M44.593 22.119c.585.193 2.043 1.672 2.335 2.276-1.44 1.622-1.226 2.204-3.57 2.159-.48.027-1.824.18-2.146-.127-.058-.54 2.834-3.763 3.381-4.308M47.776 18.125c.055.002.287.015.317.035.591.376 1.514 2.243 1.847 2.845-.338.463-2.049 2.397-2.492 2.607-.496-.356-1.905-1.778-2.26-2.27.287-.506 2.156-2.828 2.587-3.217M50.2 21.945a.54.54 0 0 1 .319.046c.226.12 2.593 3.907 2.699 4.273.02.071-.008.09-.042.153-.401.249-1.221.182-1.716.173-.47.013-.873.047-1.328-.054-.763-.168-1.642-1.56-2.005-2.258.397-.712 1.435-1.848 2.073-2.333M33.454 11.922c.235.022.16-.014.323.127a.74.74 0 0 1 .002.517c-.572 1.761-.292 2.233-2.35 2.622-.798.15-1.948.753-2.9.746l-.04-.07c-.18-.355-.568-1.578-.433-1.98.38-.351 1.912-.736 2.498-.923q1.467-.47 2.9-1.039M22.825 22.35c.198-.017.825-.034.804.237-.044.569-.182 3.598-.384 3.89-.49.234-1.523.14-2.104.124-.325-.023-.759.022-.921-.281q.013-.08.038-.158c.158-.511 2.052-3.537 2.567-3.812M43.93 12.124c.684-.054 1.413.773.638 1.454-1.17 1.029-2.372 1.982-3.473 3.085-.223.198-.328.276-.603.291l-.115-.112c-.156-.717 1.283-3.02 1.629-3.788.248-.55 1.346-.791 1.925-.93M36.804 0c.526.13 1.357 1.802 1.45 2.341.222 1.282-1.42 1.269-2.306 1.39-.339.071-1.272.364-1.45-.022.067-.668 1.736-3.182 2.306-3.709M31.059 9.07a.6.6 0 0 1 .106.023l.022.007c.479.153 1.979 1.56 1.73 2.206-.37.359-1.676.715-2.22.891-.4.125-1.183.446-1.54.178-.187-.433 1.501-3.033 1.902-3.304M40.223 13.235c.262-.036.34-.032.543.088.34.539-.79 2.165-1.044 2.69-.174.357-.703-.069-.903-.22-.238-.256-1.372-1.217-1.114-1.53.327-.397 2.008-.854 2.518-1.028M37.322 21.542c.646.351-.286 2.805-.33 3.48-.032.465-.937.14-1.233.013-.276-.175-.58-.316-.629-.666.104-.46 1.782-2.507 2.192-2.828M29.837 23.59c1.148-.035 1.478.555 1.336 1.625-.056.425-.062.81-.205 1.227-.284.052-.761.121-1.026.01-.327-.343-.395-2.44-.105-2.861M34.373 25.284c.037.002.186.015.212.029.339.191 1.997.608 1.839 1.125-.172.15-.404.14-.634.158-.579.016-1.697.128-2.126-.18-.229-.482.369-.841.709-1.132M32.074 24.291c.424.093 1.11.175 1.274.612.031.47-.347.822-.645 1.202-.228.263-.43.457-.782.351-.368-.384-.042-1.725.153-2.165M47.333 25.08c.338.063 1.042.764 1.173 1.063 0 .241.032.157-.123.337-.235.13-.612.088-.891.081-.423.017-.998.145-1.09-.37.146-.442.586-.784.93-1.111M34.475 12.903c.432.083.963.394.993.877-.11.25-.07.177-.293.344-1.22.31-1.184-.31-.7-1.22M27.2 15.3c.658.198.217.732-.029 1.047-.166-.02-.19-.031-.318-.14-.182-.417.025-.646.348-.907M43.27 10.765c.242.143.292.122.417.335-.069.225-.111.206-.313.382-.189-.045-.285-.138-.38-.294.061-.27.058-.206.276-.423"/></svg>
